X: 23248
T: Leaving Brittany
R: waltz
M: 3/4
K: Dminor
dc|:A ~d3 fd|a ~d3 cd|A ~d3 fd|ag fe df|
e ~c3 =Bc|Gc cc cA|^cd ef gf|ed cB AG|
A ~d3 fd|a ~d3 cd|A ~d3 fd|ag fe df|
e ~c3 =Bc|Gc cc cA|^cd ec ac|1 d4 dc:|2 d3 A df|
|:a ~A3 df|a ~A3 df|a2 ga (3aag|a2 g2 f2|
e ~c3 =Bc|Gc cc cA|^c2 d2 e2|e2 f2 g2|
a ~A3 df|a ~A3 df|a2 ga (3aag|a2 g2 f2|
e ~c3 =Bc|Gc cc cA|^cd ec ac|1 d3 A df:|2 d3 d cd||

